web/ui/src/components/theme/input/svgs/lock.svg

<svg height="24" viewBox="0 0 24 24" width="24" xmlns="http://www.w3.org/2000/svg"><g fill="none"><path d="m0 0h24v24h-24z" fill="#000" opacity="0"/><path d="m18.2792727 8.62581818h-.4385454v-1.6930909c0-3.22145456-2.6203637-5.84181818-5.8407273-5.84181818-3.22036364 0-5.84181818 2.62036362-5.84181818 5.84181818v1.6930909h-.43745454c-1.64001571.00240461-2.96874301 1.33161987-2.97054546 2.97163632v8.3421819c0 1.6363636 1.3330909 2.9694545 2.97054546 2.9694545h12.55854542c1.6395905-.0024032 2.9681422-1.330955 2.9705455-2.9705454v-8.3421819c-.0018037-1.63983923-1.3307062-2.96874175-2.9705455-2.97054542zm-10.48472724-1.6930909c0-2.31927274 1.88618182-4.20545456 4.20545454-4.20545456 2.3192727 0 4.2043636 1.88618182 4.2043636 4.20545456v1.6930909h-8.40981814zm11.81890904 13.00581822c0 .7352727-.5989091 1.3341818-1.3341818 1.3341818h-12.55854542c-.73635013-.0012012-1.33298059-.5978317-1.33418182-1.3341818v-8.3421819c0-.7363636.5989091-1.3352727 1.33418182-1.3352727h12.55854542c.7352727 0 1.3341818.5989091 1.3341818 1.3352727zm-6.2454545-5.0454546c0 .3981818-.1767273.7494545-.4483636.9992727v1.1541819c0 .5079011-.4117353.9196363-.9196364.9196363s-.9196364-.4117352-.9196364-.9196363v-1.1541819c-.283985-.2547393-.4468773-.6177791-.4483636-.9992727 0-.4887393.2607393-.9403531.684-1.1847228s.9447393-.2443697 1.368 0 .684.6959835.684 1.1847228z" fill="#999"/></g></svg>

<?xml version="1.0" encoding="UTF-8"?>
<svg width="24px" height="24px" viewBox="0 0 24 24" version="1.1" xmlns="http://www.w3.org/2000/svg" xmlns:xlink="http://www.w3.org/1999/xlink">
    <title>login_icon_password_default</title>
    <g id="页面-1" stroke="none" stroke-width="1" fill="none" fill-rule="evenodd">
        <g id="系统设计规范" transform="translate(-1094.000000, -5357.000000)" fill-rule="nonzero">
            <g id="login_icon_password_default" transform="translate(1094.000000, 5357.000000)">
                <rect id="矩形" fill="#000000" opacity="0" x="0" y="0" width="24" height="24"></rect>
                <path d="M18.2792727,8.62581818 L17.8407273,8.62581818 L17.8407273,6.93272728 C17.8407273,3.71127272 15.2203636,1.0909091 12,1.0909091 C8.77963636,1.0909091 6.15818182,3.71127272 6.15818182,6.93272728 L6.15818182,8.62581818 L5.72072728,8.62581818 C4.08071157,8.62822279 2.75198427,9.95743805 2.75018182,11.5974545 L2.75018182,19.9396364 C2.75018182,21.576 4.08327272,22.9090909 5.72072728,22.9090909 L18.2792727,22.9090909 C19.9188632,22.9066877 21.2474149,21.5781359 21.2498182,19.9385455 L21.2498182,11.5963636 C21.2480145,9.95652437 19.919112,8.62762185 18.2792727,8.62581818 L18.2792727,8.62581818 Z M7.79454546,6.93272728 C7.79454546,4.61345454 9.68072728,2.72727272 12,2.72727272 C14.3192727,2.72727272 16.2043636,4.61345454 16.2043636,6.93272728 L16.2043636,8.62581818 L7.79454546,8.62581818 L7.79454546,6.93272728 Z M19.6134545,19.9385455 C19.6134545,20.6738182 19.0145454,21.2727273 18.2792727,21.2727273 L5.72072728,21.2727273 C4.98437715,21.2715261 4.38774669,20.6748956 4.38654546,19.9385455 L4.38654546,11.5963636 C4.38654546,10.86 4.98545456,10.2610909 5.72072728,10.2610909 L18.2792727,10.2610909 C19.0145454,10.2610909 19.6134545,10.86 19.6134545,11.5963636 L19.6134545,19.9385455 L19.6134545,19.9385455 Z M13.368,14.8930909 C13.368,15.2912727 13.1912727,15.6425454 12.9196364,15.8923636 L12.9196364,17.0465455 C12.9196364,17.5544466 12.5079011,17.9661818 12,17.9661818 C11.4920989,17.9661818 11.0803636,17.5544466 11.0803636,17.0465455 L11.0803636,15.8923636 C10.7963786,15.6376243 10.6334863,15.2745845 10.632,14.8930909 C10.632,14.4043516 10.8927393,13.9527378 11.316,13.7083681 C11.7392607,13.4639984 12.2607393,13.4639984 12.684,13.7083681 C13.1072607,13.9527378 13.368,14.4043516 13.368,14.8930909 L13.368,14.8930909 Z" id="形状" fill="#999999"></path>
            </g>
        </g>
    </g>
</svg>
